icons/space-24.svg

<svg width="24" height="24" viewBox="0 0 24 24" fill="none" xmlns="http://www.w3.org/2000/svg">
<path d="M17.8312 13.6212C17.9391 13.3264 18.356 13.3264 18.4639 13.6212L18.786 14.501C19.2973 15.8975 20.3977 16.9979 21.7943 17.5092L22.674 17.8313C22.9688 17.9392 22.9688 18.3562 22.674 18.4641L21.7943 18.7862C20.3977 19.2974 19.2973 20.3979 18.786 21.7944L18.4639 22.6742C18.356 22.969 17.9391 22.969 17.8312 22.6742L17.5091 21.7944C16.9978 20.3979 15.8973 19.2974 14.5008 18.7862L13.621 18.4641C13.3263 18.3562 13.3263 17.9392 13.6211 17.8313L14.5008 17.5092C15.8973 16.9979 16.9978 15.8975 17.5091 14.501L17.8312 13.6212Z" fill="#59636E"/>
<path d="M2 19.25V4.75C2 3.7835 2.7835 3 3.75 3H8.7207C9.29971 3 9.84206 3.28608 10.168 3.76465L11.5723 5.82812C11.6188 5.89651 11.6966 5.9375 11.7793 5.9375H20.25C21.2165 5.9375 22 6.721 22 7.6875V13.4688C22 13.883 21.6642 14.2188 21.25 14.2188C20.8358 14.2188 20.5 13.883 20.5 13.4688V7.6875C20.5 7.54943 20.3881 7.4375 20.25 7.4375H11.7793C11.2003 7.4375 10.6579 7.15142 10.332 6.67285L8.92773 4.60938C8.88118 4.541 8.80343 4.5 8.7207 4.5H3.75C3.61193 4.5 3.5 4.61193 3.5 4.75V19.25C3.5 19.3881 3.61193 19.5 3.75 19.5H12C12.4142 19.5 12.75 19.8358 12.75 20.25C12.75 20.6642 12.4142 21 12 21H3.75C2.7835 21 2 20.2165 2 19.25Z" fill="#59636E"/>
</svg>

<svg xmlns="http://www.w3.org/2000/svg" width="24" height="24" viewBox="0 0 24 24"><path d="M17.831 13.621a.337.337 0 0 1 .633 0l.322.88a5.052 5.052 0 0 0 3.008 3.008l.88.322a.337.337 0 0 1 0 .633l-.88.322a5.054 5.054 0 0 0-3.008 3.008l-.322.88a.337.337 0 0 1-.633 0l-.322-.88a5.054 5.054 0 0 0-3.008-3.008l-.88-.322a.337.337 0 0 1 0-.633l.88-.322a5.052 5.052 0 0 0 3.008-3.008l.322-.88Z"/><path d="M2 19.25V4.75C2 3.784 2.784 3 3.75 3h4.971a1.75 1.75 0 0 1 1.447.765l1.404 2.063c.047.069.125.11.207.11h8.471c.966 0 1.75.783 1.75 1.75v5.781a.75.75 0 0 1-1.5 0V7.688a.25.25 0 0 0-.25-.25h-8.471a1.753 1.753 0 0 1-1.447-.765L8.928 4.609a.253.253 0 0 0-.207-.109H3.75a.25.25 0 0 0-.25.25v14.5c0 .138.112.25.25.25H12a.75.75 0 0 1 0 1.5H3.75A1.75 1.75 0 0 1 2 19.25Z"/></svg>
